X: 1
T: Betty Anne's
M: 6/8
L: 1/8
R: jig
K: Gmaj
|:&quot;G&quot;G,B,D GBd|&quot;C&quot;cAG F2 E|&quot;D&quot;DFA ~d3|&quot;D7&quot;DFA ~c3|
&quot;G&quot;G,B,D GBd|&quot;C&quot;cAG F2 E|&quot;D&quot;DFA ABc|1&quot;D7&quot;BFA &quot;G&quot;GDB,:|2&quot;D7&quot;BFA &quot;G&quot;GBc||
|:&quot;G&quot;dba gdB|&quot;C&quot;cag fdB|&quot;D&quot;cBc ABc|&quot;D7&quot;edc B2 c|
&quot;G&quot;dba gdB|&quot;C&quot;cag fdB|&quot;D&quot;cBc ABc|1&quot;D7&quot;BFA &quot;G&quot;GBc:|2&quot;D7&quot;BFA &quot;G&quot;GDB,||
